X: 71
T: Chicago Reel
R:reel
O:Ireland
M:4/4
K:Ador
B|"Am"cded cAGE|"C"G2GE GAcd|ecgc acgc|"Am"eaag "C"eged|
"Am"cded cAGE|"C"G2GE GAcd|"Am"eaag "C"eged|"Am"cABG A3:|
|: B|"C"cdef g2ef|"G"gedc BGG2|"C"cdef "G"g2fd|"Am"eaag aged|
"C"cdef g2ge|"D"a2af "C"g2ge|"Dm"=f2fd "Am"e=fed|cA"(G)"BG "Am"A3:|


